X:738
T:Balkan Hills, The 
C:Joe Buchanan's Scottish Tome - Page 339.0
I:339 0
R:Schottische
Z:Carl Allison
L:1/16
M:2/4
K:D
a>g | "D" f>Af>e d2A2 | "G" B>Gd>B "D" A2d>e | "D" f>d(f<a) "E7" g<fe>d | "D" {fg}f2e2 "A" e2(a>g) |
"D" f>Af>e d2A2 | "G" B<Gd>B "D" A2d>e | "D" f>a(^g<a) "A7" =g>e(c<A) | "D" {c}d4 d<d :|
f>g | "D" a>d(f<a) f2e>d | "G" B<Gd>B "D" A2d>e | "D" a>f(g<a) "E7" g>fe>d | "D" {fg}f2e2 "A" d2(f>g) |
"D" a>d(f<a) f2e>d | "G" B><Gd<B "D" A2f>g | "D" f>a(^g<a) "A7" =g>f(e<d) | "D" {c}d4 "A" d<df>g |
"D" a>d(f<a) f2e>d | "G" B<Gd>B "D" A2f>g | "D" a>df<a "E7" g>fe>d | "D" {c}f2e2 "A" e2(a>g) |
"D" f>Af>e d2A2 | "G" B<Gd>B "D" A2d>e | "D" f>a(^g<a) "A7" =g>e(c<A) | "D" {c}d4 d<d |]
(A>B) | "D" {c}d2>e2 {g}f2(e>d) | "G" B>Gd>B "D" A2d>e | "D" f>d(f<a) "E7" g>fe>d | "D" {fg}f2d2 "A" e2(A>B) |
"D" {c}d2>e2 {g}f2(e>d) | "G" B<Gd>B "D" A2d>e | "D" f>a^g<a "A7" =g>ec<A | "D" {c}d4 d<d :|
f>g | "D" a>d(f<a) A>d(f<a) | "G" f>d(f<a) {g}f2e>d | "D" a>df<a "E7" g>fe<d | "D" {c}f2e2 "A" d2(f>g) |
"D" f>Af>e d2A2 | "G" B<Gd>B "D" A2d>e | "D" f>a(^g<a) "A7" =g>e(c<A) | "D" {c}d4 "A" d<d(f>g) |
"D" a>d(f<a) A>d(f<a) | "D" f>d(f<a) {g}f2e>d | "D" a>d(f<a) "E7" g>fe<d | "D" {fg}f2e2 "A" d2(a>g) |
"D" f>Af>e d2A2 | "G" B<Gd>B A2d>e | "D" f>a(^g<a) "A7" =g>e(c<A) | "D" {c}d4 d<d |]

